src/assets/images/quote.svg

<svg xmlns="http://www.w3.org/2000/svg" xmlns:xlink="http://www.w3.org/1999/xlink" viewBox="0 0 32.58 26"><defs><style>.cls-1{fill:#fff;}.cls-2{fill:url(#Sfumatura_senza_nome_13);}</style><linearGradient id="Sfumatura_senza_nome_13" y1="13" x2="32.58" y2="13" gradientUnits="userSpaceOnUse"><stop offset="0" stop-color="#f6921e"/><stop offset="1" stop-color="#ffbe06"/></linearGradient></defs><g id="Livello_2" data-name="Livello 2"><g id="Livello_1-2" data-name="Livello 1"><path class="cls-1" d="M12,25H1V17.15a26.72,26.72,0,0,1,.84-7.52A11.32,11.32,0,0,1,5,4.69a15.68,15.68,0,0,1,5.78-3.44l2.15,4.53A9.18,9.18,0,0,0,8.17,8.83,9,9,0,0,0,6.66,14H12ZM30.3,25h-11V17.15a26.68,26.68,0,0,1,.84-7.54,11.33,11.33,0,0,1,3.13-4.92,15.93,15.93,0,0,1,5.76-3.44L31.2,5.78a9.18,9.18,0,0,0-4.71,3.05A9,9,0,0,0,25,14H30.3Z"/><path class="cls-2" d="M31.3,26h-13V17.15a27.64,27.64,0,0,1,.88-7.84A12.59,12.59,0,0,1,22.59,4,17.17,17.17,0,0,1,28.71.31L29.56,0l3,6.37-1.07.36A8.3,8.3,0,0,0,27.3,9.42,7.2,7.2,0,0,0,26.05,13H31.3Zm-11-2h9V15H24l0-1a10,10,0,0,1,1.7-5.76,9.49,9.49,0,0,1,4.14-3l-1.28-2.7A14.35,14.35,0,0,0,24,5.41,10.31,10.31,0,0,0,21.12,9.9a25.85,25.85,0,0,0-.8,7.25ZM13,26H0V17.15A27.68,27.68,0,0,1,.88,9.33,12.49,12.49,0,0,1,4.25,4,16.79,16.79,0,0,1,10.39.31L11.24,0l3,6.37-1.07.36A8.25,8.25,0,0,0,9,9.42,7.2,7.2,0,0,0,7.73,13H13ZM2,24h9V15H5.64l0-1a10,10,0,0,1,1.7-5.76,9.49,9.49,0,0,1,4.14-3L10.22,2.51a14.31,14.31,0,0,0-4.58,2.9A10.45,10.45,0,0,0,2.8,9.92,25.84,25.84,0,0,0,2,17.15Z"/></g></g></svg>

<?xml version="1.0" encoding="utf-8"?>
<!-- Generator: Adobe Illustrator 26.0.3, SVG Export Plug-In . SVG Version: 6.00 Build 0)  -->
<svg version="1.1" id="Livello_1" xmlns="http://www.w3.org/2000/svg" xmlns:xlink="http://www.w3.org/1999/xlink" x="0px" y="0px"
	 viewBox="0 0 32.6 26" style="enable-background:new 0 0 32.6 26;" xml:space="preserve">
<style type="text/css">
	.st0{fill:#FFFFFF;}
	.st1{fill:#16C8F2;}
</style>
<g id="Livello_2_00000065774112225901065400000004651745725708891837_">
	<g id="Livello_1-2">
		<path class="st0" d="M12,25H1v-7.9c-0.1-2.5,0.2-5.1,0.8-7.5C2.4,7.7,3.5,6,5,4.7C6.7,3.1,8.6,2,10.8,1.2l2.1,4.5
			c-1.9,0.5-3.5,1.6-4.8,3c-1,1.5-1.5,3.3-1.5,5.2H12V25z M30.3,25h-11v-7.9c-0.1-2.5,0.2-5.1,0.8-7.5c0.6-1.9,1.7-3.6,3.1-4.9
			C24.9,3.1,26.9,2,29,1.2l2.2,4.5c-1.8,0.5-3.5,1.6-4.7,3c-1,1.5-1.5,3.3-1.5,5.2h5.3V25z"/>
		<path class="st1" d="M31.3,26h-13v-8.9c-0.1-2.6,0.2-5.3,0.9-7.8c0.7-2,1.8-3.9,3.4-5.3c1.8-1.6,3.8-2.9,6.1-3.7L29.6,0l3,6.4
			l-1.1,0.4c-1.6,0.4-3.1,1.4-4.2,2.7c-0.7,1.1-1.2,2.3-1.2,3.6h5.2V26z M20.3,24h9v-9H24v-1c0-2,0.6-4.1,1.7-5.8
			c1.1-1.4,2.5-2.4,4.1-3l-1.3-2.7c-1.7,0.7-3.2,1.6-4.6,2.9c-1.3,1.2-2.3,2.8-2.9,4.5c-0.6,2.4-0.9,4.8-0.8,7.2L20.3,24z M13,26H0
			v-8.9c-0.1-2.6,0.2-5.3,0.9-7.8c0.6-2,1.8-3.9,3.4-5.3C6,2.3,8.1,1.1,10.4,0.3L11.2,0l3,6.4l-1.1,0.4C11.5,7.2,10.1,8.1,9,9.4
			c-0.7,1.1-1.2,2.3-1.3,3.6H13V26z M2,24h9v-9H5.6v-1c0-2,0.6-4.1,1.7-5.8c1.1-1.4,2.5-2.4,4.1-3l-1.3-2.7C8.5,3.2,7,4.2,5.6,5.4
			C4.3,6.6,3.3,8.2,2.8,9.9c-0.6,2.4-0.9,4.8-0.8,7.2V24z"/>
	</g>
</g>
</svg>
